dist/images/svg/favicon.svg

<svg width="25" height="25" viewBox="0 0 25 25" fill="none" xmlns="http://www.w3.org/2000/svg">
<path fill-rule="evenodd" clip-rule="evenodd" d="M3.97196 19.2339C7.11752 19.2339 7.71028 16.4881 7.71028 14.2896C8.08388 14.2896 11.0364 14.2896 12.3832 14.2896C19.7086 14.2896 19.7105 4 12.6168 4C10.6874 4 9.44463 5.16127 9.11192 5.56581C5.15397 5.56581 4.6729 7.61896 4.6729 11.6056C4.6729 12.3747 4.6729 14.8748 4.6729 15.2599C4.6729 16.1972 4.29346 16.8054 3.2708 16.8054C2.39767 16.8054 1.98411 16.0378 1.63528 14.9607C1.45351 15.0576 0.177103 15.743 0 15.8554C0.386215 16.9315 0.799767 19.2339 3.97196 19.2339ZM8.41916 10.0396C9.61752 10.0396 9.71939 11.829 8.33435 11.829C7.16682 11.829 7.1972 10.0396 8.41916 10.0396ZM12.6171 15.4021C11.6042 15.4021 8.64486 15.1844 8.64486 15.1844V20.7012L11.4486 20.741L12.1495 16.7502L21.028 16.5846L21.2619 20.96L24.5329 21C24.5329 21 25 12.4299 25 10.7106C25 7.52158 23.5629 5.71663 20.3271 5.56581C19.5164 5.52805 18.4556 5.37789 17.757 5.34212C20.8021 9.0207 18.3792 15.4021 12.6171 15.4021ZM18.2245 17.639L18.4579 20.8805L20.3271 20.9205L20.0935 17.639H18.2245ZM12.3832 20.7812L14.2523 20.8209L14.7194 17.639H13.0839L12.3832 20.7812Z" fill="#FF862F"/>
</svg>

<svg width="25" height="25" fill="none" xmlns="http://www.w3.org/2000/svg"><path fill-rule="evenodd" clip-rule="evenodd" d="M3.972 19.234c3.146 0 3.738-2.746 3.738-4.944h4.673c7.326 0 7.328-10.29.234-10.29-1.93 0-3.172 1.161-3.505 1.566-3.958 0-4.44 2.053-4.44 6.04v3.654c0 .937-.379 1.545-1.401 1.545-.873 0-1.287-.767-1.636-1.844-.181.097-1.458.782-1.635.894.386 1.076.8 3.379 3.972 3.379Zm4.447-9.194c1.199 0 1.3 1.789-.085 1.789-1.167 0-1.137-1.79.085-1.79Zm4.198 5.362c-1.013 0-3.972-.218-3.972-.218v5.517l2.804.04.7-3.99 8.879-.166.234 4.375 3.27.04S25 12.43 25 10.71c0-3.188-1.437-4.993-4.673-5.144-.81-.038-1.871-.188-2.57-.224 3.045 3.679.622 10.06-5.14 10.06Zm5.607 2.237.234 3.242 1.87.04-.235-3.282h-1.869Zm-5.84 3.142 1.868.04.467-3.182h-1.635l-.7 3.142Z" fill="#FF862F"/></svg>
